!!!COM: Macque, Giovanni de
!!!CDT:
!!!PTL: Il terzo libro de madrigali a quattro voci
!!!PPP: Naples
!!!PPR: Gargano & Nucci
!!!PDT: 1610
!!!PUB-format:
!!!RISM: M 95
!!!rime: 261
!!!OTL:	Mentre volgea il mio sole
!!!AGN: Madrigal
!!!SCT: Trm0261b
!!!SCA: Trm0261b
!!!original-voices: 4
!!!extant-voices: 4
!!!complete: Y
!!!final: F
**kern	**text	**kern	**text	**kern	**text	**kern	**text
*part4	*part4	*part3	*part3	*part2	*part2	*part1	*part1
*staff4	*staff4	*staff3	*staff3	*staff2	*staff2	*staff1	*staff1
*I"Basso	*	*I"Tenore	*	*I"Alto	*	*I"Canto	*
*I'B	*	*I'T	*	*I'A	*	*I'C	*
*oclefF4	*	*oclefC4	*	*oclefC3	*	*oclefC1	*
*clefF4	*	*clefGv2	*	*clefG2	*	*clefG2	*
*k[b-]	*	*k[b-]	*	*k[b-]	*	*k[b-]	*
*omet(C|)	*	*omet(C|)	*	*omet(C|)	*	*omet(C|)	*
*M2/1	*	*M2/1	*	*M2/1	*	*M2/1	*
=1	=1	=1	=1	=1	=1	=1	=1
0r	.	1r	.	1f	Men-	0r	.
.	.	1A	Men-	2e	-tre	.	.
.	.	.	.	2f	vol-	.	.
=2	=2	=2	=2	=2	=2	=2	=2
2r	.	2B-y	-tre	4d	-gea 'l	1r	.
.	.	.	.	4e	mio	.	.
2F	Men-	2A	vol-	2f	So-	.	.
2E	-tre	4c	-gea 'l	2g	-le	2r	.
.	.	4B-y	mio	.	.	.	.
2F	vol-	[2A	So-	4r	.	2a	Men-
.	.	.	.	[4f	Lu-	.	.
=3	=3	=3	=3	=3	=3	=3	=3
4D	-gea 'l	4A]	.	8fL]	.	2b-y	-tre
.	.	.	.	8fJ	-ci	.	.
4E	mio	4G	-le	4g	do	.	.
2F	So-	4r	.	4f	spec-	2a	vol-
.	.	4.c	Lu-	4f	-chio al	.	.
4F	-le	.	.	4a	Sol,	4.cc	-gea 'l
.	.	8c	-ci-	.	.	.	.
4.F	Lu-	4d	-do	4A	co-	.	.
.	.	.	.	.	.	8b-y	mio
.	.	4c	spec-	4A	-sì	2a	So-
8F	-ci-	.	.	.	.	.	.
4A	-do	4F	-chio al	4c	l'ac-	.	.
=4	=4	=4	=4	=4	=4	=4	=4
2.F	spec-	4.c	Sol,	2A	-ce-	4a	-le
.	.	.	.	.	.	4.cc	Lu-
.	.	8A	co-	.	.	.	.
.	.	4A	-sì	2F	-se,	.	.
.	.	.	.	.	.	8cc	-ci-
4BB-y	-chio al	4B-y	l'ac-	.	.	4dd	-do
4.F	Sol,	2A	-ce-	4r	.	4cc	spec-
.	.	.	.	4f	co-	4a	-chio al
8D	co-	.	.	.	.	.	.
4D	-sì	2B-y	-se	4f	-sì	4dd	Sol,
4E-X	l'ac-	.	.	4g	l'ac-	4g	co-
=5	=5	=5	=5	=5	=5	=5	=5
1C	-ce-	2r	.	4e	-ce-	4g	-sì
.	.	.	.	2f	.	4a	l'ac-
.	.	4r	.	.	.	2g	-ce-
.	.	4c	Che	4e	.	.	.
4FF	-se,	2c	qua-	2f	-se	[1a	-se
4F	Che	.	.	.	.	.	.
2F	qua-	4A	-s'un	4r	.	.	.
.	.	8B-yL	ter-	4f	Che	.	.
.	.	8cJ	-zo	.	.	.	.
=6	=6	=6	=6	=6	=6	=6	=6
4D	-s'un	2d	Sol	2f	qua-	2a]	.
8EL	ter-	.	.	.	.	.	.
8FJ	-zo	.	.	.	.	.	.
2G	Sol	2.B-y	gl'oc-	4d	-s'un	4r	.
.	.	.	.	8eL	ter-	4b-y	Che
.	.	.	.	8fJ	-zo	.	.
2.E-X	gl'oc-	.	.	2.g	Sol	2b-y	qua-
.	.	8GL	-chi	.	.	.	.
.	.	8GJ	m'of-	.	.	.	.
.	.	[2B-y	-fe-	.	.	4g	-s'un
8DL	-chi	.	.	[4f	gl'oc-	8aL	ter-
8DJ	m'of-	.	.	.	.	8b-yJ	-zo
=7	=7	=7	=7	=7	=7	=7	=7
1F	-fe-	4B-]	.	8fL]	.	4cc	Sol
.	.	.	.	8fJ	-chi	.	.
.	.	8AL	.	4c	m'of-	4.f	gl'oc-
.	.	8GJ	.	.	.	.	.
.	.	2A	.	2f	-fe-	.	.
.	.	.	.	.	.	8f	-chi
.	.	.	.	.	.	4c	m'of-
1BB-y	-se:	1B-y	-se:	1d	-se:	2f	-fe-
.	.	.	.	.	.	2f	-se:
=8	=8	=8	=8	=8	=8	=8	=8
2r	.	2r	.	2r	.	2r	.
2.C	Io,	4G	Io,	2.e	Io,	2.cc	Io,
.	.	4G	per-	.	.	.	.
.	.	2G	-den-	.	.	.	.
4C	per-	.	.	4e	per-	4cc	per-
2AA	-den-	[2A	-do	2e	-den-	2cc#X	-den-
=9	=9	=9	=9	=9	=9	=9	=9
2.D	-do	2A]	.	2.f	-do	2.dd	-do
.	.	2A	la	.	.	.	.
4D	la	.	.	4f	la	4dd	la
2E	lu-	2G#X	lu-	1e	lu-	2bnX	lu-
2E	-ce	2G#i	-ce	.	.	[2bni	-ce a
=10	=10	=10	=10	=10	=10	=10	=10
1r	.	2r	.	2.e	-ce a	4b]	.
.	.	.	.	.	.	8ccL	tan-
.	.	.	.	.	.	8gJ	-ti
.	.	2.A	a	.	.	2a	ra-
.	.	.	.	8fL	tan-	.	.
.	.	.	.	8cJ	-ti	.	.
2.D	a	.	.	2.d	ra-	4f	-i,
.	.	8B-yL	tan-	.	.	2f	a
.	.	8FJ	-ti	.	.	.	.
.	.	[2A	ra-	.	.	.	.
8FL	tan-	.	.	4c	-i,	8aL	tan-
8CJ	-ti	.	.	.	.	8gJ	-ti
=11	=11	=11	=11	=11	=11	=11	=11
2D	ra-	2A]	.	4r	.	2f#X	ra-
.	.	.	.	8dL	Qua-	.	.
.	.	.	.	8cJ	-si	.	.
2GG	-i,	2d	-i,	4B-y	cie-	4g	-i,
.	.	.	.	8AL	-co	8ccL	Qua-
.	.	.	.	8GJ	gri-	8b-yJ	-si
2r	.	4r	.	2d	-da-	4a	cie-
.	.	8B-yL	Qua-	.	.	8gL	-co
.	.	8AJ	-si	.	.	8fnXiJ	gri-
4r	.	4G	cie-	4d	-i,	4.b-y	-da-
8DL	Qua-	8FL	-co	8dL	<Qua-	.	.
8CJ	-si	8E-XJ	gri-	8e-XJ	-si	8cc	.
=12	=12	=12	=12	=12	=12	=12	=12
4BB-y	cie-	1B-y	-da-	4f	cie-	1dd	.
8AAL	-co	.	.	8fL	-co	.	.
8GGJ	gri-	.	.	8gJ	gri-	.	.
2G	-da-	.	.	1g	-da-	.	.
1D	-i:	1A	-i:	.	.	1dd	-i:
.	.	.	.	2f#X	-i:>	.	.
=13	=13	=13	=13	=13	=13	=13	=13
2r	.	2r	.	2r	.	2r	.
2C	Qual	2c	Qual	2g	Qual	2ee-X	Qual
2G	glo-	2BnX	glo-	2g	glo-	2dd	glo-
4A	-ria è	4c	-ria è	4e	-ria è	4a	-ria è
[4BnX	que-	[4d	que-	[4g	que-	[4dd	que-
=14	=14	=14	=14	=14	=14	=14	=14
4B]	.	4d]	.	4g]	.	4dd]	.
4c	-sta, A-	4e	-sta, A-	4g	-sta, A-	4cc	-sta, A-
2A	-mo-	2c	-mo-	2f#X	-mo-	2cc	-mo-
2G	-re,	2d	-re,	2g	-re,	2bnX	-re,
4r	.	4r	.	4r	.	4r	.
4C	Qual	4c	Qual	4g	Qual	4ee-X	Qual
=15	=15	=15	=15	=15	=15	=15	=15
2G	glo-	2BnX	glo-	2g	glo-	2dd	glo-
4A	-ria è	4c	-ria è	4e	-ria è	4a	-ria è
2BnX	que-	2d	que-	2g	que-	2dd	que-
4c	-sta, A-	4e	-sta, A-	4g	-sta, A-	4cc	-sta, A-
2A	-mo-	2c	-mo-	2f#X	-mo-	2cc	-mo-
=16	=16	=16	=16	=16	=16	=16	=16
2G	-re,	4d	-re,	2g	-re,	1bnX	-re,
.	.	2G	Tor-	.	.	.	.
2r	.	.	.	4r	.	.	.
.	.	8DL	-mi	2f	Tor-	.	.
.	.	8EJ	la	.	.	.	.
1r	.	8FL	vi-	.	.	4r	.
.	.	8A	-st'hor	.	.	.	.
.	.	8A	che	8cL	-mi	2cc	Tor-
.	.	8B-XJ	m'hai	8dJ	la	.	.
.	.	2c	tol-	8eL	vi-	.	.
.	.	.	.	8e	-st'hor	.	.
.	.	.	.	8e	che	8gL	-mi
.	.	.	.	8fJ	m'hai	8aJ	la
=17	=17	=17	=17	=17	=17	=17	=17
1r	.	4G	-t'il	4g	tol-	8b-yL	vi-
.	.	.	.	.	.	8b-y	-st'hor
.	.	4.B-y	co-	4d	-t'il	8b-y	che
.	.	.	.	.	.	8ccJ	m'hai
.	.	.	.	1f	co-	4dd	tol-
.	.	8c	.	.	.	.	.
.	.	4d	.	.	.	4b-y	-t'il
2r	.	1c	-re?	.	.	2a	co-
4r	.	.	.	2e	-re?	2g	-re?
8CL	E	.	.	.	.	.	.
8CJ	per-	.	.	.	.	.	.
=18	=18	=18	=18	=18	=18	=18	=18
2.C	-ché	4r	.	4r	.	4r	.
.	.	8AL	E	8eL	E	8ccL	E
.	.	8AJ	per-	8eJ	per-	8ccJ	per-
.	.	2.A	-ché	4e	-ché	2.cc	-ché
8BB-yL	non	.	.	8dL	non	.	.
8AAJ	gio-	.	.	8cJ	gio-	.	.
4D	-i-	.	.	4f	-i-	.	.
2D	-sca al	8GL	non	2f	-sca al	8b-yL	non
.	.	8FJ	gio-	.	.	8aJ	gio-
.	.	4B-y	-i-	.	.	4dd	-i-
8CL	lu-	[4B-y	-sca al	8eL	lu-	[4dd	-sca al
8BB-yJ	-m'on-	.	.	8dJ	-m'on-	.	.
=19	=19	=19	=19	=19	=19	=19	=19
2.E-X	-d'ar-	4B-]	.	0g	-d'ar-	4dd]	.
.	.	8AL	lu-	.	.	8ccL	lu-
.	.	8GJ	-m'on-	.	.	8b-yJ	-m'on-
.	.	2.c	-d'ar-	.	.	2ee-X	-d'ar-
4F	.	.	.	.	.	.	.
1G	.	.	.	.	.	1dd	-do
.	.	8BnXL	.	.	.	.	.
.	.	8AJ	.	.	.	.	.
.	.	2Bni	.	.	.	.	.
=20	=20	=20	=20	=20	=20	=20	=20
1C	-do	1c	-do	1e	-do	4r	.
.	.	.	.	.	.	2g	Con
.	.	.	.	.	.	4a	tre
1r	.	4r	.	2r	.	2g	So-
.	.	2c	ab-	.	.	.	.
.	.	.	.	4r	.	2g	-li
.	.	4BnX	-ba-	4g	un	.	.
=21	=21	=21	=21	=21	=21	=21	=21
4r	.	2c	-gliar-	4e	va-	2r	.
2F	ab-	.	.	4f	-go	.	.
.	.	4c	-mi	2g	sguar-	4r	.
4E	-ba-	2c	Con	.	.	4cc	un
2F	-gliar-	.	.	4f	-do,	4.a	va-
.	.	4d	tre	4.f	ab-	.	.
.	.	.	.	.	.	8b-y	-go
2A	-mi un	4c	So-	.	.	4cc	sguar-
.	.	.	.	8e	-ba-	.	.
.	.	[4c	-li ab-	4f	-gliar-	4f	-do,
=22	=22	=22	=22	=22	=22	=22	=22
4F#X	va-	4c]	.	4d	-mi	2r	.
4G	-go	4BnX	-ba-	8r	.	.	.
.	.	.	.	8g	un	.	.
4A	sguar-	4c#X	-gliar-	4e	va-	4r	.
4D	-do,	4d	-mi un	4f#X	-go	2dd	Con
4r	.	4BnX	va-	1g	sguar-	.	.
2C	ab-	4cnXi	-go	.	.	4ee-X	tre
.	.	2d	sguar-	.	.	2dd	So-
4BBnX	-ba-	.	.	.	.	.	.
=23	=23	=23	=23	=23	=23	=23	=23
2C	-gliar-	4G	-do,	2e	-do,	1cc	-li
.	.	4c	un	.	.	.	.
4FF	-mi	2.A	va-	2f	un	.	.
2F	Con	.	.	.	.	.	.
.	.	.	.	4.d	va-	4r	.
4G	tre	4B-X	-go	.	.	2b-y	ab-
.	.	.	.	8e	-go	.	.
2F	So-	2c	sguar-	2f	sguar-	.	.
.	.	.	.	.	.	4a	-ba-
=24	=24	=24	=24	=24	=24	=24	=24
2.BB-y	-li ab-	4d	-do,	4f	-do,	2b-y	-gliar-
.	.	2d	ab-	2B-y	Con	.	.
.	.	.	.	.	.	1f	-mi
4AA	-ba-	4c	-ba-	4c	tre	.	.
2BB-y	-gliar-	4d	-gliar-	4B-y	So-	.	.
.	.	4B-y	-mi un	2f	-li ab-	.	.
2C	-mi un	4G	va-	.	.	2r	.
.	.	4A	-go	4e	-ba-	.	.
=25	=25	=25	=25	=25	=25	=25	=25
2AA	va-	2c	sguar-	4f	-gliar-	2r	.
.	.	.	.	4f	-mi un	.	.
2BB-y	-go	2F	-do,	2d	va-	4r	.
.	.	.	.	.	.	4b-y	un
[1C	sguar-	4r	.	2.e	-go	2g	va-
.	.	4c	un	.	.	.	.
.	.	[2A	va-	.	.	2a	-gho
.	.	.	.	[4f	sguar-	.	.
=26	=26	=26	=26	=26	=26	=26	=26
1C]	.	4A]	.	4f]	.	4.cc	sguar-
.	.	4B-y	-gho	8eL	.	.	.
.	.	.	.	8dJ	.	16b-yLL	.
.	.	.	.	.	.	16aJJ	.
.	.	2c	sguar-	2e	.	2g	.
[1FFl	-do!	[1cl	-do!	[1fl	-do!	[1al	-do!
==	==	==	==	==	==	==	==
*-	*-	*-	*-	*-	*-	*-	*-
!!!system-decoration: [*]
!!!RDF**kern: i = editorial accidental
!!!RDF**kern: l = terminal long
!!!ENC: Emiliano Ricciardi
!!!END: 2017/11
!!!EED: Deutsch, Catherine
!!!EEV: 2018/07/09
!!!YEC: Copyright 2018 Emiliano Ricciardi, All Rights Reserved
!!!ONB: Translated from MusicXML on 2018/07/09 and edited by Craig Stuart Sapp
